assets/shop-tab/Asset/Star.svg

<svg width="75" height="75" viewBox="0 0 75 75" fill="none" xmlns="http://www.w3.org/2000/svg">
<path d="M32.8994 4.2209C35.5018 1.83328 39.4982 1.83329 42.1006 4.22091L44.5974 6.51162C46.0513 7.84545 48.0124 8.48266 49.9726 8.25811L53.339 7.87246C56.8478 7.4705 60.081 9.81954 60.7829 13.2808L61.4565 16.6016C61.8486 18.5353 63.0607 20.2035 64.7785 21.174L67.7286 22.8407C70.8036 24.578 72.0385 28.3788 70.572 31.5917L69.1649 34.6741C68.3456 36.469 68.3456 38.531 69.1649 40.3259L70.572 43.4084C72.0385 46.6212 70.8036 50.422 67.7286 52.1593L64.7785 53.826C63.0607 54.7965 61.8486 56.4647 61.4564 58.3984L60.783 61.7192C60.081 65.1805 56.8478 67.5295 53.339 67.1275L49.9726 66.7419C48.0124 66.5173 46.0513 67.1546 44.5974 68.4884L42.1006 70.7791C39.4982 73.1667 35.5018 73.1667 32.8994 70.7791L30.4026 68.4884C28.9488 67.1546 26.9876 66.5173 25.0274 66.7419L21.661 67.1275C18.1522 67.5295 14.919 65.1805 14.2171 61.7192L13.5436 58.3984C13.1514 56.4647 11.9393 54.7965 10.2215 53.826L7.27137 52.1593C4.19642 50.422 2.96146 46.6212 4.42803 43.4083L5.83507 40.3259C6.65437 38.531 6.65436 36.469 5.83507 34.6741L4.42802 31.5916C2.96145 28.3788 4.19642 24.578 7.27137 22.8407L10.2215 21.174C11.9393 20.2035 13.1514 18.5353 13.5436 16.6016L14.2171 13.2808C14.919 9.81954 18.1522 7.4705 21.661 7.87246L25.0274 8.25811C26.9876 8.48267 28.9488 7.84545 30.4026 6.51161L32.8994 4.2209Z" fill="url(#paint0_linear_569_885)"/>
<path d="M32.3242 3.59375C35.2519 0.907833 39.7481 0.907837 42.6758 3.59375L45.1729 5.88477C46.4449 7.05176 48.1609 7.60956 49.876 7.41309L53.2422 7.02734C57.1894 6.57517 60.8263 9.21765 61.6162 13.1113L62.29 16.4326C62.6332 18.1245 63.6942 19.5844 65.1973 20.4336L68.1475 22.1006C71.6064 24.0551 72.9955 28.331 71.3457 31.9453L69.9385 35.0273C69.2217 36.5978 69.2217 38.4022 69.9385 39.9727L71.3457 43.0547C72.9955 46.669 71.6064 50.9449 68.1475 52.8994L65.1973 54.5664C63.6942 55.4156 62.6332 56.8755 62.29 58.5674L61.6162 61.8887C60.8263 65.7823 57.1894 68.4248 53.2422 67.9727L49.876 67.5869C48.1609 67.3904 46.4449 67.9482 45.1729 69.1152L42.6758 71.4062C39.7481 74.0922 35.2519 74.0922 32.3242 71.4062L29.8271 69.1152C28.5551 67.9482 26.8391 67.3904 25.124 67.5869L21.7578 67.9727C17.8106 68.4248 14.1737 65.7823 13.3838 61.8887L12.71 58.5674C12.3668 56.8755 11.3058 55.4156 9.80273 54.5664L6.85254 52.8994C3.39359 50.9449 2.00449 46.669 3.6543 43.0547L5.06152 39.9727C5.77834 38.4022 5.77834 36.5978 5.06152 35.0273L3.6543 31.9453C2.00449 28.331 3.39359 24.0551 6.85254 22.1006L9.80273 20.4336C11.3058 19.5844 12.3668 18.1245 12.71 16.4326L13.3838 13.1113C14.1737 9.21765 17.8106 6.57517 21.7578 7.02734L25.124 7.41309C26.8391 7.60956 28.5551 7.05176 29.8271 5.88477L32.3242 3.59375Z" stroke="url(#paint1_linear_569_885)" stroke-opacity="0.8" stroke-width="1.70131"/>
<path d="M58.8613 4.71281C59.1353 3.97222 60.1828 3.97222 60.4569 4.71281L61.3648 7.16664C61.451 7.39948 61.6346 7.58306 61.8674 7.66922L64.3213 8.57722C65.0619 8.85126 65.0619 9.89875 64.3213 10.1728L61.8674 11.0808C61.6346 11.1669 61.451 11.3505 61.3648 11.5834L60.4569 14.0372C60.1828 14.7778 59.1353 14.7778 58.8613 14.0372L57.9533 11.5834C57.8671 11.3505 57.6835 11.1669 57.4507 11.0808L54.9969 10.1728C54.2563 9.89875 54.2563 8.85126 54.9969 8.57722L57.4507 7.66922C57.6835 7.58306 57.8671 7.39948 57.9533 7.16664L58.8613 4.71281Z" fill="white"/>
<defs>
<linearGradient id="paint0_linear_569_885" x1="37.5" y1="1.0411e-07" x2="36.0807" y2="69.8575" gradientUnits="userSpaceOnUse">
<stop stop-color="#42D9A2"/>
<stop offset="0.526042" stop-color="#12A978" stop-opacity="0.904896"/>
<stop offset="1" stop-color="#056B53" stop-opacity="0.78"/>
</linearGradient>
<linearGradient id="paint1_linear_569_885" x1="37.5" y1="0" x2="37.5" y2="75" gradientUnits="userSpaceOnUse">
<stop stop-color="white"/>
<stop offset="0.967617" stop-color="#01AB64"/>
</linearGradient>
</defs>
</svg>

<svg xmlns="http://www.w3.org/2000/svg" width="75" height="75" fill="none" viewBox="0 0 75 75"><path fill="url(#a)" d="M32.9 4.22a6.805 6.805 0 0 1 9.2 0l2.497 2.292a6.8 6.8 0 0 0 5.376 1.746l3.366-.386a6.805 6.805 0 0 1 7.444 5.409l.673 3.32a6.8 6.8 0 0 0 3.322 4.573l2.95 1.667a6.805 6.805 0 0 1 2.844 8.75l-1.407 3.083a6.8 6.8 0 0 0 0 5.652l1.407 3.082a6.805 6.805 0 0 1-2.843 8.751l-2.95 1.667a6.8 6.8 0 0 0-3.323 4.572l-.673 3.321a6.805 6.805 0 0 1-7.444 5.408l-3.366-.385a6.8 6.8 0 0 0-5.376 1.746l-2.496 2.291a6.805 6.805 0 0 1-9.202 0l-2.496-2.29a6.8 6.8 0 0 0-5.376-1.747l-3.366.385a6.805 6.805 0 0 1-7.444-5.408l-.673-3.32a6.8 6.8 0 0 0-3.322-4.573l-2.95-1.667a6.805 6.805 0 0 1-2.844-8.75l1.407-3.083a6.8 6.8 0 0 0 0-5.652l-1.407-3.082a6.805 6.805 0 0 1 2.843-8.751l2.95-1.667a6.8 6.8 0 0 0 3.323-4.572l.673-3.321a6.805 6.805 0 0 1 7.444-5.409l3.366.386a6.8 6.8 0 0 0 5.376-1.746z"/><path stroke="url(#b)" stroke-opacity=".8" stroke-width="1.701" d="M32.324 3.594a7.656 7.656 0 0 1 10.352 0l2.497 2.29a5.96 5.96 0 0 0 4.703 1.53l3.366-.387a7.656 7.656 0 0 1 8.374 6.084l.674 3.322a5.96 5.96 0 0 0 2.907 4l2.95 1.668a7.656 7.656 0 0 1 3.199 9.844l-1.407 3.082a5.96 5.96 0 0 0 0 4.946l1.407 3.082a7.656 7.656 0 0 1-3.199 9.844l-2.95 1.667a5.96 5.96 0 0 0-2.907 4.001l-.674 3.322a7.656 7.656 0 0 1-8.374 6.084l-3.366-.386a5.96 5.96 0 0 0-4.703 1.528l-2.497 2.291a7.656 7.656 0 0 1-10.352 0l-2.497-2.29a5.96 5.96 0 0 0-4.703-1.53l-3.366.387a7.656 7.656 0 0 1-8.374-6.084l-.674-3.322a5.96 5.96 0 0 0-2.907-4l-2.95-1.668a7.656 7.656 0 0 1-3.199-9.844l1.408-3.082a5.96 5.96 0 0 0 0-4.946l-1.408-3.082a7.656 7.656 0 0 1 3.199-9.844l2.95-1.667a5.96 5.96 0 0 0 2.907-4.001l.674-3.322a7.656 7.656 0 0 1 8.374-6.084l3.366.386a5.96 5.96 0 0 0 4.703-1.528z"/><path fill="#fff" d="M58.861 4.713c.274-.74 1.322-.74 1.596 0l.908 2.454a.85.85 0 0 0 .502.502l2.454.908c.74.274.74 1.322 0 1.596l-2.454.908a.85.85 0 0 0-.502.502l-.908 2.454c-.274.74-1.322.74-1.596 0l-.908-2.454a.85.85 0 0 0-.502-.502l-2.454-.908c-.74-.274-.74-1.322 0-1.596l2.454-.908a.85.85 0 0 0 .502-.502z"/><defs><linearGradient id="a" x1="37.5" x2="36.081" y1="0" y2="69.858" gradientUnits="userSpaceOnUse"><stop stop-color="#42d9a2"/><stop offset=".526" stop-color="#12a978" stop-opacity=".905"/><stop offset="1" stop-color="#056b53" stop-opacity=".78"/></linearGradient><linearGradient id="b" x1="37.5" x2="37.5" y1="0" y2="75" gradientUnits="userSpaceOnUse"><stop stop-color="#fff"/><stop offset=".968" stop-color="#01ab64"/></linearGradient></defs></svg>
